static/logos/paypal-glyph-color.svg

<svg width="50" height="60" viewBox="0 0 50 60" fill="none" xmlns="http://www.w3.org/2000/svg">
<g clip-path="url(#clip0_1_1716)">
<path d="M13.9718 56.0662L14.9775 49.6777L12.7371 49.6258H2.03906L9.47368 2.4854C9.49676 2.3431 9.57176 2.2104 9.68137 2.11617C9.79099 2.02194 9.93137 1.97002 10.0775 1.97002H28.116C34.1045 1.97002 38.2372 3.21617 40.3949 5.67579C41.4064 6.82964 42.0507 8.0354 42.3622 9.36233C42.6891 10.7546 42.6949 12.4181 42.3757 14.4469L42.3526 14.595V15.895L43.3641 16.4681C44.216 16.92 44.893 17.4373 45.4122 18.0296C46.2776 19.0162 46.8372 20.27 47.0737 21.7565C47.318 23.2854 47.2372 25.1046 46.8372 27.1642C46.3757 29.5335 45.6295 31.5969 44.6218 33.2854C43.6949 34.8412 42.5141 36.1315 41.1122 37.1315C39.7737 38.0815 38.1834 38.8027 36.3853 39.2642C34.643 39.7181 32.6564 39.9469 30.4776 39.9469H29.0737C28.0699 39.9469 27.0949 40.3085 26.3295 40.9565C25.5622 41.6181 25.0545 42.5219 24.8987 43.5104L24.793 44.0854L23.016 55.345L22.9353 55.7585C22.9141 55.8892 22.8776 55.9546 22.8237 55.9988C22.7757 56.0392 22.7064 56.0662 22.6391 56.0662H13.9718Z" fill="#253B80"/>
<path d="M44.3208 14.7442C44.267 15.0884 44.2055 15.4404 44.1362 15.8019C41.7574 28.0154 33.6189 32.2346 23.2247 32.2346H17.9324C16.6613 32.2346 15.5901 33.1577 15.392 34.4115L12.6824 51.5962L11.9151 56.4673C11.7863 57.2904 12.4209 58.0327 13.2516 58.0327H22.6381C23.7497 58.0327 24.6939 57.225 24.8689 56.1288L24.9612 55.6519L26.7285 44.4365L26.842 43.8212C27.0151 42.7212 27.9612 41.9135 29.0728 41.9135H30.4766C39.5708 41.9135 46.6901 38.2212 48.7708 27.5365C49.6401 23.0731 49.1901 19.3462 46.8901 16.725C46.1939 15.9346 45.3305 15.2788 44.3208 14.7442Z" fill="#179BD7"/>
<path d="M41.831 13.752C41.4675 13.6462 41.0925 13.5501 40.7079 13.4635C40.3214 13.3789 39.9252 13.3039 39.5175 13.2385C38.0906 13.0077 36.5272 12.8981 34.8522 12.8981H20.7137C20.3656 12.8981 20.0349 12.977 19.7387 13.1193C19.0868 13.4328 18.6022 14.0501 18.4849 14.8058L15.4772 33.8558L15.3906 34.4115C15.5887 33.1577 16.6599 32.2346 17.931 32.2346H23.2233C33.6175 32.2346 41.756 28.0135 44.1349 15.802C44.206 15.4404 44.2656 15.0885 44.3195 14.7443C43.7175 14.4251 43.0656 14.152 42.3637 13.9193C42.1906 13.8616 42.0118 13.8058 41.831 13.752Z" fill="#222D65"/>
<path d="M18.4884 14.8058C18.6058 14.05 19.0904 13.4327 19.7423 13.1212C20.0404 12.9788 20.3692 12.9 20.7173 12.9H34.8558C36.5308 12.9 38.0942 13.0096 39.5212 13.2404C39.9288 13.3058 40.325 13.3808 40.7115 13.4654C41.0962 13.5519 41.4712 13.6481 41.8346 13.7538C42.0154 13.8077 42.1942 13.8635 42.3692 13.9192C43.0712 14.1519 43.7231 14.4269 44.325 14.7442C45.0327 10.2308 44.3192 7.15769 41.8788 4.375C39.1885 1.31154 34.3327 0 28.1192 0H10.0808C8.81152 0 7.72883 0.923077 7.53267 2.17885L0.0192093 49.8038C-0.128868 50.7462 0.598056 51.5962 1.54806 51.5962H12.6846L15.4807 33.8558L18.4884 14.8058Z" fill="#253B80"/>
</g>
<defs>
<clipPath id="clip0_1_1716">
<rect width="50" height="59.6154" fill="white"/>
</clipPath>
</defs>
</svg>

<svg xmlns="http://www.w3.org/2000/svg" width="53.333" height="64" fill="none" viewBox="0 0 50 60"><g clip-path="url(#a)"><path fill="#253B80" d="m13.972 56.066 1.005-6.388-2.24-.052H2.04l7.435-47.14a.623.623 0 0 1 .207-.37.607.607 0 0 1 .397-.146h18.038c5.989 0 10.121 1.246 12.279 3.706 1.011 1.154 1.656 2.36 1.967 3.686.327 1.393.333 3.056.014 5.085l-.023.148v1.3l1.011.573c.852.452 1.529.97 2.048 1.562.866.986 1.425 2.24 1.662 3.726.244 1.53.163 3.349-.237 5.408-.461 2.37-1.208 4.433-2.215 6.121-.927 1.556-2.108 2.847-3.51 3.847-1.338.95-2.929 1.67-4.727 2.132-1.742.454-3.729.683-5.907.683h-1.404a4.257 4.257 0 0 0-2.745 1.01 4.25 4.25 0 0 0-1.43 2.553l-.106.575-1.777 11.26-.08.413c-.022.131-.058.197-.112.24a.297.297 0 0 1-.185.068h-8.667Z"/><path fill="#179BD7" d="M44.32 14.744c-.053.344-.114.696-.184 1.058-2.379 12.213-10.517 16.433-20.911 16.433h-5.293a2.57 2.57 0 0 0-2.54 2.176l-2.71 17.185-.767 4.871a1.354 1.354 0 0 0 1.337 1.566h9.386a2.259 2.259 0 0 0 2.23-1.904l.093-.477 1.768-11.215.113-.616a2.257 2.257 0 0 1 2.23-1.907h1.405c9.094 0 16.213-3.693 18.294-14.378.87-4.463.42-8.19-1.88-10.811-.697-.79-1.56-1.446-2.57-1.98Z"/><path fill="#222D65" d="M41.831 13.752a18.798 18.798 0 0 0-2.314-.514c-1.426-.23-2.99-.34-4.665-.34H20.714a2.254 2.254 0 0 0-2.229 1.908l-3.008 19.05-.086.555a2.57 2.57 0 0 1 2.54-2.176h5.292c10.395 0 18.533-4.221 20.912-16.433.071-.362.13-.713.184-1.058a12.688 12.688 0 0 0-1.955-.825 17.24 17.24 0 0 0-.533-.167Z"/><path fill="#253B80" d="M18.488 14.806a2.248 2.248 0 0 1 2.23-1.906h14.138c1.675 0 3.238.11 4.665.34a18.76 18.76 0 0 1 2.848.679 12.87 12.87 0 0 1 1.956.825c.708-4.513-.006-7.586-2.446-10.369C39.189 1.312 34.333 0 28.119 0H10.081C8.81 0 7.729.923 7.533 2.179L.019 49.804a1.55 1.55 0 0 0 1.53 1.792h11.136l2.796-17.74 3.007-19.05Z"/></g><defs><clipPath id="a"><path fill="#fff" d="M0 0h50v59.615H0z"/></clipPath></defs></svg>
